X:1
T:Guadeloupe, LMD
T:Guadeloupe, LMD
T:Henry Tucker, 1860
T:Public Domain Courtesy of the Cyber Hymnal™
C:Henry Tucker, 1860
Z:Public Domain
Z:Courtesy of the Cyber Hymnal™
%%score ( 1 2 ) ( 3 4 )
L:1/8
Q:1/4=95
M:6/8
K:A
V:1 treble 
V:2 treble 
V:3 bass 
V:4 bass 
V:1
|: [CE] | [CA]2 [DG] [CA]2 [EB] | [Ac]2 [Fd] [EB]2 ([Ac]/[Bd]/) | [ce]2 A [Fd]2 [Ec] | %4
 ([DB][CA])[DG] [CA]2 :| [EA] | [Fd]2 [Ac] [Fd]2 [Af] | [ce]2 [Ac] A2 [Ac] | %8
 [Fd]2 [Af] [ce]2 [Ac] | [EA]2 [Ac] [GB]2 [CE] | [CA]2 [DG] [CA]2 [EB] | %11
 [Ac]2 [Fd] [EB]2 ([Ac]/[Bd]/) | [ce]2 A [Fd]2 [Ec] | ([DB][CA])[DG] [CA]2 |] %14
V:2
|: x | x6 | x6 | x2 A x3 | x5 :| x | x6 | x3 A2 x | x6 | x6 | x6 | x6 | x2 A x3 | x5 |] %14
V:3
|: [A,,A,] | [A,,E,]2 [A,,E,] [A,,E,]2 [E,G,] | A,2 [D,A,] [E,G,]2 [A,,A,] | %3
 [A,,A,]2 [C,A,] [D,A,]2 [E,A,] | (G,A,)E, [A,,E,]2 :| [A,C] | [D,A,]2 [E,A,] [D,A,]2 [D,A,] | %7
 [A,,A,]2 [A,,A,] [A,,C]2 [A,,C] | [D,A,]2 [D,A,] [A,,A,]2 [A,,A,] | [A,C]2 A, [E,B,]2 [A,,A,] | %10
 [A,,E,]2 [A,,E,] [A,,E,]2 [E,G,] | A,2 [D,A,] [E,G,]2 [A,,A,] | [A,,A,]2 [C,A,] [D,A,]2 [E,A,] | %13
 (G,A,)E, [A,,E,]2 |] %14
V:4
|: x | x6 | A,2 x4 | x6 | E,2 E, x2 :| x | x6 | x6 | x6 | x2 A, x3 | x6 | A,2 x4 | x6 | %13
 E,2 E, x2 |] %14

